X:37
T:Alcyone - Airs des Matelots
C:Marin Marais
O:France
Z:<anamnese@laposte.net> -- http://anamnese.fr.st
M:4/4
L:1/8
Q:1/4=126
K:C
%%text Premire partie (See The female Saylor)
%%text Interlude
A2 F>E D3 A | d d/^c/ de f/g/ f/e/ f/e/ d |
A2 F>E D3 A | B2 !uppermordent!^c2!lowermordent!d-d3 :|
|: F2 F>F F3 G | A G/A/ _BA/G/ A>G F2 |
  f2  g2 a3 g | fe d^c d/^c/ d/e/dA   |
  f2 e>d ed/^c/ de | AG/F/ E D/^C/ D4 :|
%%text Dernire partie (not transcribed yet)
W:Amants malheureux si mille cueils facheux trouble vos voeux
W:Le dsespoir est le plus dangereux. (2x)
W:Quelque vent qui gronde
W:[]
W:Peut-on perdre l'espoir quand on connait son pouvoir. (2x)
